X:1
T: Ferguson's Rant
C:
R:Reel
Q: 232
K:G
M:4/4
L:1/8
|:dc|B2 AG DG BG|FA dA DG BG|B2 AG DG BG|B2 A2 A2 dc|
BG DG cA FA|dB GB ec Af|gf ed cB Ad|B2 G2 G2:|
|:ga|bd gd Bd gd|bd Bg Bd gB|ce dc BG dc|c2 B2 A2 dc|
BG DG cA FA|dB GB ec Af|gf ed cB Ad|B2 G2 G2:|
